!!!COM: Palestrina, Giovanni Perluigi da
!!!OPR: O magnum mysterium
!!!OTL: Agnus II
**kern	**kern	**kern	**kern	**kern	**kern
*Ibass	*Itenor	*Icalto	*Icalto	*Icant	*Icant
!Bassus	!Tenor	!Altus 2	!Altus 1	!Cantus 2	!Cantus 1
*clefF4	*clefGv2	*clefG2	*clefG2	*clefG2	*clefG2
*k[]	*k[]	*k[]	*k[]	*k[]	*k[]
*E:phr	*E:phr	*E:phr	*E:phr	*E:phr	*E:phr
*M4/2	*M4/2	*M4/2	*M4/2	*M4/2	*M4/2
=1	=1	=1	=1	=1	=1
0r	1r	0r	0A	0r	0r
.	[1A	.	.	.	.
=2	=2	=2	=2	=2	=2
0r	1A]	0A	1c	0r	0a
.	1F	.	1d	.	.
=3	=3	=3	=3	=3	=3
0r	1E	1c	1e	0r	1g
.	1D	1d	2.A	.	1f
.	.	.	4G	.	.
=4	=4	=4	=4	=4	=4
0r	2.A	1c	4A	0r	1e
.	.	.	4B	.	.
.	.	.	1c	.	.
.	8G	.	.	.	.
.	8F	.	.	.	.
.	1E	1e	.	.	1g
.	.	.	2B	.	.
=5	=5	=5	=5	=5	=5
0r	2D	2.f	2d	0r	2.a
.	1F	.	4c	.	.
.	.	4e	4B	.	4b
.	.	4c	2A	.	2cc
.	.	4d	.	.	.
.	2G	[2e	2B	.	[2b
=6	=6	=6	=6	=6	=6
0r	2A	2e]	2c	0r	4b]
.	.	.	.	.	4a
.	2D	2f	2d	.	1a
.	1E	2.e	1B	.	.
.	.	.	.	.	2g
.	.	4d	.	.	.
=7	=7	=7	=7	=7	=7
0AA	1A	2.c	4A	0a	2f
.	.	.	4B	.	.
.	.	.	4c	.	4e
.	.	4B	4d	.	4d
.	1r	1A	2e	.	2c
.	.	.	[2f	.	2cc
=8	=8	=8	=8	=8	=8
1C	2r	1E	4f]	1g	2cc
.	.	.	4e	.	.
.	2E	.	1e	.	2cc
1D	2F	1r	.	1f	2.a
.	[2A	.	2d	.	.
.	.	.	.	.	4b
=9	=9	=9	=9	=9	=9
1C	4A]	1r	0e	1e	1cc
.	4G	.	.	.	.
.	1c	.	.	.	.
1E	.	2r	.	1g	1r
.	2B	2e	.	.	.
=10	=10	=10	=10	=10	=10
2.F	2A	4d	0r	2.a	2r
.	.	4c	.	.	.
.	2.c	2f	.	.	1a
4G	.	.	.	4b	.
2A	.	2.e	.	2cc	.
.	4d	.	.	.	.
2E	2e	.	.	[2b	2g
.	.	4d	.	.	.
=11	=11	=11	=11	=11	=11
2F	1A	2c	1r	4b]	1f
.	.	.	.	4a	.
2D	.	2d	.	1a	.
1E	2r	1B	2r	.	2.e
.	[2E	.	[2e	2g#	.
.	.	.	.	.	4d
=12	=12	=12	=12	=12	=12
0AA	2E]	1A	2e]	[0a	2c
.	2F	.	1d	.	2d
.	1E	2r	.	.	1e
.	.	2e	2c#	.	.
=13	=13	=13	=13	=13	=13
0r	2r	1f	2d	0a]	2r
.	2D	.	2.A	.	2a
.	1A	1e	.	.	1cc
.	.	.	4B	.	.
.	.	.	4c	.	.
.	.	.	4A	.	.
=14	=14	=14	=14	=14	=14
0r	1G	1g	1d	2r	2b
.	.	.	.	2d	1dd
.	1A	2f	1r	1a	.
.	.	[2e	.	.	[2cc
=15	=15	=15	=15	=15	=15
0r	2c	2e]	0r	2.g	2cc]
.	2G	1d	.	.	2.b
.	.	.	.	4f	.
.	1A	.	.	1e	.
.	.	.	.	.	4a
.	.	2c#	.	.	[2a
=16	=16	=16	=16	=16	=16
1r	1B-	0d	2r	1r	2a]
.	.	.	2d	.	2g
1D	1A	.	1f	2r	[1a
.	.	.	.	2a	.
=17	=17	=17	=17	=17	=17
1A	0r	2r	1e	1cc	1a]
.	.	2A	.	.	.
2G	.	2d	2.g	2b	2r
2G	.	2B	.	2dd	2d
.	.	.	4f	.	.
=18	=18	=18	=18	=18	=18
2C	2r	2c	2e	2cc	1g
2GG	2B	2d	2d	1b	.
4AA	1c	1A	2c	.	1e
4BB	.	.	.	.	.
4C	.	.	[2e	[2a	.
4D	.	.	.	.	.
=19	=19	=19	=19	=19	=19
1E	1B	2r	4e]	2a]	1r
.	.	.	4d	.	.
.	.	2e	2e	2g#	.
1D	1d	1f	1A	1a	2r
.	.	.	.	.	2f
=20	=20	=20	=20	=20	=20
1E	2c	2e	0r	0r	2g
.	2.B	2g	.	.	2e
2D	.	2f	.	.	1a
.	4A	.	.	.	.
2C	[2A	[2e	.	.	.
=21	=21	=21	=21	=21	=21
1BB	2A]	4e]	2r	0r	1d
.	.	4d	.	.	.
.	2G#	1d	2d	.	.
1AA	1A	.	2f	.	1r
.	.	2c#	2e	.	.
=22	=22	=22	=22	=22	=22
1GG	1r	2d	2.g	1b	2r
.	.	2g	.	.	2d
.	.	.	4f	.	.
1C	1E	1g	4e	1cc	1e
.	.	.	4d	.	.
.	.	.	2c	.	.
=23	=23	=23	=23	=23	=23
1GG	1G	2.g	2d	2b	1d
.	.	.	2B	2dd	.
.	.	4f	.	.	.
2r	2A	2e	2c	2cc	1r
2GG	2B	2d	4g	[2b	.
.	.	.	4f	.	.
=24	=24	=24	=24	=24	=24
2AA	2c	2c	4e	2b]	1r
.	.	.	4d	.	.
2AA	2A	2.e	4c	1a	.
.	.	.	4d	.	.
1E	1B	.	2.e	.	1b
.	.	8d	.	.	.
.	.	8c	.	.	.
.	.	2B	.	2g#	.
.	.	.	4d	.	.
=25	=25	=25	=25	=25	=25
1AA	1A	2.e	4c	1a	1cc
.	.	.	4B	.	.
.	.	.	2c	.	.
.	.	4f#	.	.	.
1r	1G	2.g	1d	2r	2b
.	.	.	.	2d	2dd
.	.	4f	.	.	.
=26	=26	=26	=26	=26	=26
0r	2C	2e	0r	2.g	2cc
.	2G	2d	.	.	2.b
.	.	.	.	4f	.
.	2A	2c	.	2e	.
.	.	.	.	.	4a
.	2D	2d	.	2f	[2a
=27	=27	=27	=27	=27	=27
2r	1E	2B	1r	1e	2a]
2C	.	2c	.	.	2.g
2D	1r	1A	2r	1d	.
.	.	.	.	.	4f
2D	.	.	2d	.	[2f
=28	=28	=28	=28	=28	=28
4E	2r	1G	2c	0r	2f]
4F	.	.	.	.	.
4G	2G	.	2B	.	2.e
4E	.	.	.	.	.
2F	2A	1r	2A	.	.
.	.	.	.	.	4d
2G	2B	.	[2G	.	2d
=29	=29	=29	=29	=29	=29
2C	0c	1r	2G]	1g	1e
2C	.	.	2g	.	.
2F	.	2r	2f	2a	1r
2A	.	2c	2e	2a	.
=30	=30	=30	=30	=30	=30
1G	1B	2d	2g	4b	0r
.	.	.	.	4cc	.
.	.	2d	2.G	4dd	.
.	.	.	.	4b	.
1E	1G	4e	.	2cc	.
.	.	4f	4A	.	.
.	.	4g	4B	[2b	.
.	.	4e	4c	.	.
=31	=31	=31	=31	=31	=31
2D	2r	2f	2d	4b]	0r
.	.	.	.	4a	.
2C	2G	2.e	2e	1cc	.
1F	2A	.	1r	.	.
.	.	8d	.	.	.
.	.	8c	.	.	.
.	2A	2d	.	4b	.
.	.	.	.	4a	.
=32	=32	=32	=32	=32	=32
2E	4B	2e	0r	4g	0r
.	4c	.	.	4e	.
2D	4d	2f	.	2.a	.
.	4B	.	.	.	.
1E	2c	[1e	.	.	.
.	.	.	.	4g	.
.	2B	.	.	4g	.
.	.	.	.	8a	.
.	.	.	.	8b	.
=33	=33	=33	=33	=33	=33
2.C	2A	1e]	1r	0cc	2r
.	2.G	.	.	.	2g
4BB	.	.	.	.	.
1AA	.	1c	2r	.	2a
.	4F#	.	.	.	.
.	4F#	.	2c	.	2a
.	4E	.	.	.	.
=34	=34	=34	=34	=34	=34
1GG	1G	2r	2d	1b	4b
.	.	.	.	.	4cc
.	.	2G	2d	.	4dd
.	.	.	.	.	4b
1r	1r	2c	4e	1g	2cc
.	.	.	4f	.	.
.	.	2e	4g	.	[2b
.	.	.	4e	.	.
=35	=35	=35	=35	=35	=35
0r	0r	2d	2f	2a	4b]
.	.	.	.	.	4a
.	.	2c	2e	2a	1a
.	.	1B	1d	4b	.
.	.	.	.	4cc	.
.	.	.	.	4dd	2g#
.	.	.	.	4b	.
=36	=36	=36	=36	=36	=36
0r	2r	2A	1e	1cc	2a
.	2C	2e	.	.	1g
.	2D	1d	1r	2b	.
.	2D	.	.	[2a	2f
=37	=37	=37	=37	=37	=37
2r	1E	2B	0r	2a]	2e
2C	.	2e	.	2g	2cc
2D	1r	2.d	.	1f	2b
2D	.	.	.	.	[2a
.	.	4c	.	.	.
=38	=38	=38	=38	=38	=38
1E	2r	1B	2r	0e	2a]
.	1E	.	2B	.	2g#
1AA	.	[1A	2c#	.	1a
.	2E	.	2c#	.	.
=39	=39	=39	=39	=39	=39
1D	2F	1A]	2d	2r	0a
.	2F	.	2.f	2.a	.
2.F	4D	2r	.	.	.
.	4E	.	4e	4g	.
.	4F	[2A	2c	[2f	.
4E	4G	.	.	.	.
=40	=40	=40	=40	=40	=40
2D	2.A	2A]	2d	2f]	2r
2C#	.	2A	1e	2e	2.a
.	4G	.	.	.	.
1D	1E	2A	.	2.a	.
.	.	.	.	.	4g
.	.	2A	2d	.	4a
.	.	.	.	4g	4b
=41	=41	=41	=41	=41	=41
0AA	[0E	4A	[0e	4a	2.cc
.	.	4G	.	4b	.
.	.	4A	.	2.cc	.
.	.	4B	.	.	4b
.	.	1c	.	.	1a
.	.	.	.	4b	.
.	.	.	.	[2a	.
=42	=42	=42	=42	=42	=42
[0E	0E]	[0B	0e]	2a]	[0b
.	.	.	.	4g#	.
.	.	.	.	4f#	.
.	.	.	.	2.g#	.
.	.	.	.	4a	.
=43	=43	=43	=43	=43	=43
1E_	[0E	1B_	[0e	[0g#	1b_
1E_	.	1B_	.	.	1b_
=44	=44	=44	=44	=44	=44
0E]	0E]	0B]	0e]	0g#]	0b]
==	==	==	==	==	==
*-	*-	*-	*-	*-	*-
!!!CDT: 1525/^1526/-1594/2/2
!!!OCY: Italia
!!!AGN: Mass (Parody)
!!!AST: renaissance, vocal
!!!ASW: Motet 1569 (Palestrina)
!!!PWK: Masses, Book 4
!!!RNB: Cadence finals: A,C,G,F
!!!YOR: Le Opere Complete, v. 10, p. 150
!!!YOO: Rome, Italy: Fratelli Scalera
!!!END: 1992//
!!!EED: John Miller
!!!YEC: Copyright 2000, John Miller
!!!YEN: United States of America
!!!YEM: Rights to all derivative electronic formats reserved.
!!!YEM: Refer to licensing agreement for further details.
!!!YEM: This file must be accompanied by the licensing agreement.
!!!YEM: A copy of the licensing agreement may be found at http://www.music-cog.ohio-state.edu/HumdrumDatabases/Palestrina/license.txt
!!!EMD: converted to Humdrum by Bret Aarden
